dist/img/svg/box_icon.svg

<svg version="1.2" baseProfile="tiny-ps" xmlns="http://www.w3.org/2000/svg" width="1191" height="1170"><style/><g id="Capa 1"><path id="&lt;Compound Path&gt;" fill-rule="evenodd" d="M1190.56 352.69v465.12c0 6.98-3.72 13.42-9.77 16.91L605.03 1167.1a19.447 19.447 0 01-9.76 2.62c-3.37 0-6.75-.87-9.77-2.62L9.82 834.47a19.545 19.545 0 01-9.76-16.91L.01 352.98c-.08-2.9.48-5.86 1.76-8.67 1.41-3.09 3.54-5.65 6.1-7.55.41-.3 192.75-111.4 577.05-333.29 4.87-3.05 11-3.88 16.73-1.89l287.91 99.75c7.22 2.5 12.32 8.99 13.05 16.6.72 7.61-3.06 14.94-9.68 18.76l-28.28 16.33 18.47 10.66 47.81-27.6c7.2-4.16 16.26-3.3 22.55 2.15l230.33 199.46c4.37 3.78 6.82 9.28 6.75 15zM825.59 175.57L317.21 469.08c-4.91 2.83-10.8 3.4-16.16 1.54l-94.35-32.69 220.98 127.59-75.49-65.38a19.5 19.5 0 01-6.66-16.61c.6-6.29 4.21-11.9 9.68-15.06l488.85-282.24-18.47-10.66zM66.31 347.96l239.1 82.84 530.98-306.56-239.08-82.83-531 306.55zm509.47 348.16L39.07 386.25l.05 420.04 536.61 310.06.05-420.23zm561.73-346.86L938.42 176.85 398.49 488.58l199.09 172.41 539.93-311.73zm13.99 37.02L614.84 696.12l-.05 420.25 536.71-309.83V386.28z" fill="#000"/></g></svg>

<svg version="1.2" baseProfile="tiny-ps" xmlns="http://www.w3.org/2000/svg" viewBox="0 0 1191 1170" width="1191" height="1170">
	<title>Capa 1</title>
	<style>
		tspan { white-space:pre }
		.shp0 { fill: #000000 } 
	</style>
	<g id="Capa 1">
		<path id="&lt;Compound Path&gt;" fill-rule="evenodd" class="shp0" d="M1190.56 352.69L1190.56 817.81C1190.56 824.79 1186.84 831.23 1180.79 834.72L605.03 1167.1C602.01 1168.85 598.64 1169.72 595.27 1169.72C591.9 1169.72 588.52 1168.85 585.5 1167.1L9.82 834.47C3.79 830.98 0.06 824.54 0.06 817.56L0.01 352.98C-0.07 350.08 0.49 347.12 1.77 344.31C3.18 341.22 5.31 338.66 7.87 336.76C8.28 336.46 200.62 225.36 584.92 3.47C589.79 0.42 595.92 -0.41 601.65 1.58L889.56 101.33C896.78 103.83 901.88 110.32 902.61 117.93C903.33 125.54 899.55 132.87 892.93 136.69L864.65 153.02L883.12 163.68L930.93 136.08C938.13 131.92 947.19 132.78 953.48 138.23L1183.81 337.69C1188.18 341.47 1190.63 346.97 1190.56 352.69ZM825.59 175.57L317.21 469.08C312.3 471.91 306.41 472.48 301.05 470.62L206.7 437.93L427.68 565.52L352.19 500.14C347.41 496.01 344.93 489.82 345.53 483.53C346.13 477.24 349.74 471.63 355.21 468.47L844.06 186.23L825.59 175.57ZM66.31 347.96L305.41 430.8L836.39 124.24L597.31 41.41L66.31 347.96ZM575.78 696.12L39.07 386.25L39.12 806.29L575.73 1116.35L575.78 696.12ZM1137.51 349.26L938.42 176.85L398.49 488.58L597.58 660.99L1137.51 349.26ZM1151.5 386.28L614.84 696.12L614.79 1116.37L1151.5 806.54L1151.5 386.28Z" />
	</g>
</svg>
